X: 25385
T: March Hare, The
R: hornpipe
M: 4/4
K: Dminor
F>E|:D2A2A2 G>A|F>GF>E C>DE>C|D>CD>E F>EF>G|A>Bc>B A>G (3FED|
A,2 D2D3 E|F>GF>E C>DE>C|D>E (3FED C>D (3EDC|1 D2D>C D2 F>E:|2 D2 D>C D2A>c||
|:d>ed>c (3ddd c>A|G>FG>A G>F D2|d>ed>c d2 d>e|f>gf>e c>d (3edc|
d>ed>c (3ddd c>A|G>FG>A G>F D>C|D>E (3FED C>D (3EDC|1 D2 D>C D2 A>c:|2 D2 D>C D2 F>E||
|:D>CD>E F>EF>G|A>Bc>B A>G (3FED|C>=B,C>D E>DE>F|G>AG>F E>DC>E|
D>CD>E F>EF>G|A>Bc>B A>G (3FED|F>G (3AGF E>F (3GFE|D2D>C D2F>E:|

